img/benefits/Group 72.svg

<svg width="92" height="63" viewBox="0 0 92 63" fill="none" xmlns="http://www.w3.org/2000/svg">
<rect x="0.2" y="0.2" width="91.6" height="62.6" rx="27.8" fill="#F9FBFF" stroke="#0037FC" stroke-width="0.4"/>
<path d="M56.7456 37.1996C56.2627 38.3161 55.5371 39.375 54.5794 40.3433L54.228 40.6987L53.046 48.5611L46.952 44.3718L46.3267 44.4886C45.1669 44.7055 43.9713 44.8154 42.7731 44.8154C34.681 44.8154 28.0976 39.8968 28.0976 33.8509C28.0976 27.9918 34.2808 23.1914 42.0282 22.9005C41.3825 21.9598 40.8121 21.0456 40.3385 20.182C40.2987 20.1101 40.2614 20.0375 40.2241 19.9648C36.5203 20.3826 33.091 21.7082 30.3767 23.801C26.9306 26.458 25.0327 30.0271 25.0327 33.851C25.0327 37.6748 26.9306 41.244 30.3766 43.901C33.7046 46.4669 38.107 47.8801 42.7729 47.8801C43.9419 47.8801 45.1096 47.7895 46.2531 47.6105L51.9836 51.5497C52.4112 51.8432 52.9113 51.9985 53.4296 51.9985C53.7814 51.9985 54.1236 51.9273 54.4465 51.7872C55.2587 51.4347 55.8226 50.7014 55.9552 49.8243L57.112 42.1286C58.1218 41.0367 58.9145 39.8533 59.4801 38.605C59.0477 38.459 58.628 38.2769 58.227 38.0583C57.7256 37.7865 57.2317 37.4988 56.7456 37.1996Z" fill="#0037FC"/>
<path d="M66.8269 30.0716L63.041 26.286C62.6828 25.9279 62.2067 25.7307 61.7001 25.7307C61.636 25.7307 61.5725 25.7339 61.5114 25.7402C60.4665 25.8458 59.4874 26.2474 58.6794 26.902C58.5541 27.0038 58.3941 27.0602 58.2296 27.0602C58.0682 27.0602 57.9103 27.0053 57.7852 26.9057C55.4645 25.0375 53.3439 22.9157 51.48 20.597C51.271 20.3369 51.2718 19.9602 51.4816 19.7008C52.1358 18.8928 52.5371 17.9145 52.6421 16.8716C52.6992 16.303 52.5004 15.745 52.0963 15.3409L48.3104 11.5551C47.9524 11.1971 47.4763 11 46.9707 11C46.9093 11 46.8472 11.0031 46.786 11.0092C45.5611 11.1289 44.4052 11.6763 43.531 12.5504C41.8511 14.2305 41.4797 16.8497 42.6278 18.9198C45.5837 24.3131 52.6933 32.086 59.4764 35.7626C60.256 36.1879 61.1399 36.4123 62.0344 36.4123C63.4559 36.4123 64.8399 35.8434 65.8318 34.8515C66.7058 33.9776 67.2532 32.8217 67.3732 31.5967C67.429 31.0306 67.2298 30.4748 66.8269 30.0716Z" fill="#0037FC"/>
<path d="M35.4013 34.0401L33.3237 36.3487C33.239 36.4428 33.1919 36.5651 33.1919 36.6919V36.9073C33.1919 37.1906 33.4216 37.4204 33.7049 37.4204H37.2139C37.4973 37.4204 37.7269 37.1905 37.7269 36.9073V36.7535C37.7269 36.4702 37.4972 36.2406 37.2139 36.2406H35.0089L36.2664 34.8402C36.9403 34.1371 37.3267 33.3876 37.3267 32.783C37.3267 31.7259 36.5113 31.0156 35.2977 31.0156C34.5918 31.0156 33.8614 31.3361 33.3434 31.8727C33.1492 32.074 33.152 32.3939 33.3499 32.5917L33.4575 32.6993C33.555 32.7968 33.6898 32.8516 33.8253 32.8496C33.9631 32.8481 34.0946 32.7914 34.19 32.6921C34.4848 32.3858 34.9091 32.1954 35.2977 32.1954C35.685 32.1954 36.1467 32.2973 36.1467 32.7829C36.1467 33.0141 35.917 33.5023 35.4125 34.0282C35.4085 34.032 35.4049 34.0361 35.4013 34.0401Z" fill="#0037FC"/>
<path d="M40.5613 37.4204H40.7154C40.9987 37.4204 41.2284 37.1905 41.2284 36.9073V35.8198H41.5771C41.8604 35.8198 42.09 35.5901 42.09 35.3068V35.1529C42.09 34.8695 41.8603 34.6399 41.5771 34.6399H41.2284V33.4369C41.2284 33.1535 40.9986 32.9239 40.7154 32.9239H40.5613C40.278 32.9239 40.0482 33.1536 40.0482 33.4369V34.6399H39.0015L40.6443 31.7844C40.7357 31.6256 40.7354 31.4302 40.6437 31.2719C40.5521 31.1132 40.3827 31.0156 40.1996 31.0156H40.0227C39.8391 31.0156 39.6695 31.1137 39.5778 31.2729L37.5157 34.8587C37.4708 34.9366 37.4473 35.0247 37.4473 35.1145V35.307C37.4473 35.5903 37.677 35.8199 37.9602 35.8199H40.0481V36.9074C40.0482 37.1905 40.2781 37.4204 40.5613 37.4204Z" fill="#0037FC"/>
<path d="M43.5671 30.7891H43.4132C43.0944 30.7891 42.8359 31.0475 42.8359 31.3663V37.0759C42.8359 37.3946 43.0944 37.653 43.4132 37.653H43.5671C43.8859 37.653 44.1443 37.3946 44.1443 37.0759V35.129C44.1443 34.2822 44.5213 33.8445 45.2524 33.8285C45.8193 33.8285 46.0835 34.0951 46.0835 34.6673V37.0759C46.0835 37.3946 46.3419 37.653 46.6606 37.653H46.8146C47.1333 37.653 47.3918 37.3946 47.3918 37.0759V34.6673C47.3918 33.3632 46.5521 32.5204 45.242 32.5205C44.8343 32.5279 44.4645 32.6133 44.1444 32.7686V31.3662C44.1443 31.0474 43.8859 30.7891 43.5671 30.7891Z" fill="#0037FC"/>
</svg>

<svg width="92" height="63" fill="none" xmlns="http://www.w3.org/2000/svg"><rect x=".2" y=".2" width="91.6" height="62.6" rx="27.8" fill="#F9FBFF" stroke="#0037FC" stroke-width=".4"/><path d="M56.746 37.2c-.483 1.116-1.209 2.175-2.167 3.143l-.351.356-1.182 7.862-6.094-4.19-.625.118a19.38 19.38 0 01-3.554.326c-8.092 0-14.675-4.918-14.675-10.964 0-5.86 6.183-10.66 13.93-10.95a32.358 32.358 0 01-1.69-2.719 7.772 7.772 0 01-.114-.217c-3.704.418-7.133 1.743-9.847 3.836-3.446 2.657-5.344 6.226-5.344 10.05 0 3.824 1.898 7.393 5.344 10.05 3.328 2.566 7.73 3.98 12.396 3.98a22.66 22.66 0 003.48-.27l5.73 3.939a2.545 2.545 0 002.464.237 2.54 2.54 0 001.508-1.963l1.157-7.695a13.257 13.257 0 002.368-3.524 7.892 7.892 0 01-1.253-.547c-.501-.272-.995-.56-1.481-.858zm10.081-7.128l-3.786-3.786a1.884 1.884 0 00-1.53-.546 5.336 5.336 0 00-2.832 1.162.715.715 0 01-.894.004 41.455 41.455 0 01-6.305-6.309.718.718 0 01.002-.896 5.33 5.33 0 001.16-2.83 1.89 1.89 0 00-.546-1.53l-3.786-3.786a1.883 1.883 0 00-1.524-.546 5.353 5.353 0 00-3.255 1.541 5.368 5.368 0 00-.903 6.37c2.956 5.393 10.065 13.166 16.848 16.843a5.36 5.36 0 002.558.65 5.402 5.402 0 003.798-1.561 5.354 5.354 0 001.541-3.255 1.888 1.888 0 00-.546-1.525z" fill="#0037FC"/><path d="M35.401 34.04l-2.077 2.309a.513.513 0 00-.132.343v.215c0 .284.23.513.513.513h3.509c.283 0 .513-.23.513-.513v-.153a.513.513 0 00-.513-.513h-2.205l1.257-1.4c.674-.704 1.06-1.453 1.06-2.058 0-1.057-.815-1.767-2.028-1.767-.706 0-1.437.32-1.955.857a.513.513 0 00.007.719l.108.107a.514.514 0 00.732-.007c.295-.306.72-.497 1.108-.497.387 0 .849.102.849.588 0 .231-.23.72-.734 1.245l-.012.012z" fill="#0037FC"/><path d="M40.561 37.42h.154c.284 0 .513-.23.513-.513V35.82h.35c.282 0 .512-.23.512-.513v-.154a.513.513 0 00-.513-.513h-.349v-1.203a.513.513 0 00-.513-.513h-.154a.513.513 0 00-.513.513v1.203h-1.047l1.643-2.856a.512.512 0 00-.444-.768h-.177a.513.513 0 00-.445.257l-2.062 3.586a.512.512 0 00-.069.255v.193c0 .283.23.513.513.513h2.088v1.087c0 .284.23.513.513.513zm3.006-6.63h-.154a.577.577 0 00-.577.576v5.71c0 .319.258.577.577.577h.154a.577.577 0 00.577-.577v-1.947c0-.847.377-1.285 1.108-1.3.567 0 .831.266.831.838v2.409c0 .319.259.577.578.577h.154a.577.577 0 00.577-.577v-2.409c0-1.304-.84-2.147-2.15-2.147a2.608 2.608 0 00-1.098.249v-1.403a.577.577 0 00-.577-.577z" fill="#0037FC"/></svg>
